src/lib/packages/icons/src/assets/line/calendar-star.svg

<svg width="24" height="24" viewBox="0 0 24 24" fill="none" xmlns="http://www.w3.org/2000/svg">
<path d="M18 3.75H16.75V3C16.75 2.586 16.414 2.25 16 2.25C15.586 2.25 15.25 2.586 15.25 3V3.75H8.75V3C8.75 2.586 8.414 2.25 8 2.25C7.586 2.25 7.25 2.586 7.25 3V3.75H6C3.582 3.75 2.25 5.082 2.25 7.5V18C2.25 20.418 3.582 21.75 6 21.75H18C20.418 21.75 21.75 20.418 21.75 18V7.5C21.75 5.082 20.418 3.75 18 3.75ZM6 5.25H7.25V6C7.25 6.414 7.586 6.75 8 6.75C8.414 6.75 8.75 6.414 8.75 6V5.25H15.25V6C15.25 6.414 15.586 6.75 16 6.75C16.414 6.75 16.75 6.414 16.75 6V5.25H18C19.577 5.25 20.25 5.923 20.25 7.5V8.25H3.75V7.5C3.75 5.923 4.423 5.25 6 5.25ZM18 20.25H6C4.423 20.25 3.75 19.577 3.75 18V9.75H20.25V18C20.25 19.577 19.577 20.25 18 20.25ZM15.271 13.1899L13.7119 12.968L13.043 11.6399C12.844 11.2439 12.443 10.999 11.999 10.999C11.555 10.999 11.1541 11.2439 10.9551 11.6399L10.2859 12.968L8.72705 13.1899C8.29005 13.2519 7.93698 13.55 7.80298 13.967C7.66898 14.381 7.78212 14.8249 8.09912 15.1279L9.21606 16.1931L8.96289 17.6411C8.88589 18.0761 9.06097 18.509 9.41797 18.771C9.77697 19.036 10.2509 19.0739 10.6479 18.8689L11.998 18.175L13.3479 18.8689C13.5189 18.9569 13.703 19.001 13.887 19.001C14.131 19.001 14.3731 18.924 14.5791 18.772C14.9351 18.509 15.11 18.0761 15.033 17.6421L14.78 16.1931L15.8979 15.127C16.2129 14.826 16.3271 14.381 16.1931 13.967C16.0621 13.55 15.708 13.2519 15.271 13.1899ZM13.603 15.2451C13.331 15.5061 13.207 15.8829 13.271 16.2549L13.4409 17.229L12.5259 16.7581C12.1949 16.5871 11.8021 16.5891 11.4771 16.7571L10.5601 17.229L10.731 16.2529C10.794 15.8819 10.67 15.5049 10.397 15.2429L9.68896 14.5681L10.6831 14.426C11.0511 14.374 11.371 14.145 11.541 13.812L12 12.9009L12.4609 13.8159C12.6299 14.1459 12.9489 14.374 13.3169 14.426L14.311 14.5681L13.603 15.2451Z" fill="currentColor"/>
</svg>

<svg xmlns="http://www.w3.org/2000/svg" width="24" height="24" fill="none"><path fill="currentColor" d="M18 3.75h-1.25V3a.75.75 0 0 0-1.5 0v.75h-6.5V3a.75.75 0 0 0-1.5 0v.75H6c-2.418 0-3.75 1.332-3.75 3.75V18c0 2.418 1.332 3.75 3.75 3.75h12c2.418 0 3.75-1.332 3.75-3.75V7.5c0-2.418-1.332-3.75-3.75-3.75ZM6 5.25h1.25V6a.75.75 0 0 0 1.5 0v-.75h6.5V6a.75.75 0 0 0 1.5 0v-.75H18c1.577 0 2.25.673 2.25 2.25v.75H3.75V7.5c0-1.577.673-2.25 2.25-2.25Zm12 15H6c-1.577 0-2.25-.673-2.25-2.25V9.75h16.5V18c0 1.577-.673 2.25-2.25 2.25Zm-2.729-7.06-1.56-.222-.668-1.328a1.162 1.162 0 0 0-1.044-.641c-.444 0-.845.245-1.044.64l-.67 1.329-1.558.222c-.437.062-.79.36-.924.777-.134.414-.02.858.296 1.16l1.117 1.066-.253 1.448c-.077.435.098.868.455 1.13.359.265.833.303 1.23.098l1.35-.694 1.35.694a1.163 1.163 0 0 0 1.231-.097 1.15 1.15 0 0 0 .454-1.13l-.253-1.449 1.118-1.066c.315-.301.43-.746.295-1.16a1.122 1.122 0 0 0-.922-.777Zm-1.668 2.055a1.13 1.13 0 0 0-.332 1.01l.17.974-.915-.47a1.145 1.145 0 0 0-1.049-.002l-.917.472.171-.976a1.134 1.134 0 0 0-.334-1.01l-.708-.675.994-.142c.368-.052.688-.281.858-.614l.459-.911.46.915c.17.33.489.558.857.61l.994.142-.708.677Z"/></svg>
